X:1
T:Argyle, 76.76
T:Argyle, 76.76
T:Edmund Hart Turpin (1835-1907)
T:Public Domain Courtesy of the Cyber Hymnal™
C:Edmund Hart Turpin (1835-1907)
Z:Public Domain
Z:Courtesy of the Cyber Hymnal™
%%score ( 1 2 ) ( 3 4 )
L:1/8
Q:1/4=112
M:4/4
K:G
V:1 treble 
V:2 treble 
V:3 bass 
V:4 bass 
V:1
 [DB]2 | [Dd]2 [DB]2 A2 G2 | [GB]2 [FA]2 G2 [Gc]2 | [GB]2 [Ge]2 [Dd]2 cB | [FA]6 A2 | %5
 [DA]2 [DB]2 [Cc]2 E2 | G2 A2 [DB]2 d2 x | [Ed]2 (cA) [DG]2 [CF]2 | [B,G]6 |] %9
V:2
 x2 | x4 (EF) G2 | x4 G2 x2 | x6 E2 | x6 (FE) | x6 E2 | D4 (GF) x3 | x2 E2 x4 | x6 |] %9
V:3
 G,2 | [F,A,]2 [G,B,]2 C2 [E,B,]2 | D3 C [G,B,]2 [E,C]2 | [D,D]2 [C,G,]2 G,B, A,G, | %4
 [D,D]6 (A,G,) | [D,F,]2 [B,,G,]2 [A,,A,]2 [C,G,]2 | G,3 z F, [G,,G,]2 [B,,G,]2 | %7
 [C,G,]2 (A,C) [D,B,]2 [D,A,]2 | [G,,G,]6 |] %9
V:4
 G,2 | x4 (C,D,) x2 | D,4 x4 | x4 B,,2 C,2 | x6 D,2 | x8 | B,,2 A,,2 x5 | x2 C,2 x4 | x6 |] %9

